!!!OTL: Die Koenigskinder Es war einmal eine Graefin,
!!!ARE: Europa, Mitteleuropa, Deutschland (BRD), Baden, Schwetzingen, Altlussheim
!!!YOR: 1, S. 203
!!    18?? aufgezeichnet (Ende des Jh.)
!!!SCT: Q0020E
!!!YEM: Copyright 1995, estate of Helmut Schaffrath.
**kern	**text
*ICvox	*
*M4/4	*
*k[f#c#g#]	*
*A:	*
{4e	1._Es
=1	=1
4.cc#/	war
8b/	ein-
4a	-mal
8f#	ei-
8f#	-ne
=2	=2
(>4.e	Grä-
8f#)	.
4e}	-fin,
{4e	ein
=3	=3
4b/	wun-
4e	-der-
4b/	-ſchö-
4e	-nes
=4	=4
2cc#/	Weib,
4r}	.
{4e	die
=5	=5
4.cc#/	hat-
8cc#/	-te
4ee/	ei-
4ee/	-ne
=6	=6
2dd/	Toch-
4f#}	-ter,
{4f#	ʒum
=7	=7
4e	Ster-
8e	-ben
8e	war
4cc#/	ſie
4b/	be-
=8	=8
2a;	-reit.
4r}	.
==	==
!!!AGN: Ballade, Liebe, Trennung, Tod
!! zweistimmig notiert; Oberstimme = Melodiestimme
!!!ONB: ESAC (Essen Associative Code) Database: BALLADE
!!!AMT: simple quadruple
!!!AIN: vox
!!!EED: Helmut Schaffrath
!!!EEV: 1.0
!!!RDF**kern: >= above
!!@@COMMENT:"A 65077. Altlußheim, unfern Schwetʒingen (Baden). Hfl. Slg. Phil. Glock, Ausgang 19. Jahrh."
!!@@END:
!!@@COMMENT:"In original two voices"
!!@@END:
!!!source: Deutsche Volkslieder mit ihren Melodien. Balladen. Herausgegeben vom Deutschen Volksliedarchiv. Erster Band Balladen. Berlin und Leipzig 1935.
!!!page: 203
!!!ENC: Anna Maria Matuszewska
!!!EEV: 2025/02/14
*-	*-
